src/static/pycontw-2017/images/icon-modal-next.svg

<svg width="17px" height="30px" viewBox="263 565 17 30" version="1.1" xmlns="http://www.w3.org/2000/svg" xmlns:xlink="http://www.w3.org/1999/xlink">
    <defs></defs>
    <path d="M264.803543,594.625806 C264.597424,594.832258 264.339775,594.935484 264.056361,594.935484 C263.772947,594.935484 263.515298,594.832258 263.309179,594.625806 C262.89694,594.212903 262.89694,593.541935 263.309179,593.129032 L276.449275,579.967742 L263.309179,566.806452 C262.89694,566.393548 262.89694,565.722581 263.309179,565.309677 C263.721417,564.896774 264.391304,564.896774 264.803543,565.309677 L278.690821,579.219355 C279.10306,579.632258 279.10306,580.303226 278.690821,580.716129 L264.803543,594.625806 L264.803543,594.625806 Z" id="right-arrow" stroke="none" fill="#647D92" fill-rule="evenodd"></path>
</svg>

<svg width="17" height="30" viewBox="263 565 17 30" xmlns="http://www.w3.org/2000/svg"><path d="M264.804 594.626c-.207.206-.464.31-.748.31a1.06 1.06 0 0 1-.747-1.806l13.14-13.162-13.14-13.162a1.06 1.06 0 0 1 0-1.496 1.056 1.056 0 0 1 1.495 0l13.887 13.91a1.06 1.06 0 0 1 0 1.496l-13.887 13.91z" fill="#647D92" fill-rule="evenodd"/></svg>
